svg/linkedin.svg

<?xml version="1.0" ?><svg height="72" viewBox="0 0 72 72" width="72" xmlns="http://www.w3.org/2000/svg"><g fill="none" fill-rule="evenodd"><path d="M8,72 L64,72 C68.418278,72 72,68.418278 72,64 L72,8 C72,3.581722 68.418278,-8.11624501e-16 64,0 L8,0 C3.581722,8.11624501e-16 -5.41083001e-16,3.581722 0,8 L0,64 C5.41083001e-16,68.418278 3.581722,72 8,72 Z" fill="#007EBB"/><path d="M62,62 L51.315625,62 L51.315625,43.8021149 C51.315625,38.8127542 49.4197917,36.0245323 45.4707031,36.0245323 C41.1746094,36.0245323 38.9300781,38.9261103 38.9300781,43.8021149 L38.9300781,62 L28.6333333,62 L28.6333333,27.3333333 L38.9300781,27.3333333 L38.9300781,32.0029283 C38.9300781,32.0029283 42.0260417,26.2742151 49.3825521,26.2742151 C56.7356771,26.2742151 62,30.7644705 62,40.051212 L62,62 Z M16.349349,22.7940133 C12.8420573,22.7940133 10,19.9296567 10,16.3970067 C10,12.8643566 12.8420573,10 16.349349,10 C19.8566406,10 22.6970052,12.8643566 22.6970052,16.3970067 C22.6970052,19.9296567 19.8566406,22.7940133 16.349349,22.7940133 Z M11.0325521,62 L21.769401,62 L21.769401,27.3333333 L11.0325521,27.3333333 L11.0325521,62 Z" fill="#FFF"/></g></svg>

<svg xmlns="http://www.w3.org/2000/svg" width="72" height="72"><g fill="none" fill-rule="evenodd"><path fill="#007EBB" d="M8 72h56a8 8 0 0 0 8-8V8a8 8 0 0 0-8-8H8a8 8 0 0 0-8 8v56a8 8 0 0 0 8 8Z"/><path fill="#FFF" d="M62 62H51.316V43.802c0-4.99-1.896-7.777-5.845-7.777-4.296 0-6.54 2.901-6.54 7.777V62H28.632V27.333H38.93v4.67s3.096-5.729 10.453-5.729c7.353 0 12.617 4.49 12.617 13.777V62ZM16.35 22.794c-3.508 0-6.35-2.864-6.35-6.397C10 12.864 12.842 10 16.35 10c3.507 0 6.347 2.864 6.347 6.397 0 3.533-2.84 6.397-6.348 6.397ZM11.032 62h10.736V27.333H11.033V62Z"/></g></svg>
